X:1
T:Sidon, CM
T:Sidon, CM
T:William Crotch (1775–1847)
T:Public Domain Courtesy of the Cyber Hymnal™
C:William Crotch (1775–1847)
Z:Public Domain
Z:Courtesy of the Cyber Hymnal™
%%score ( 1 2 ) ( 3 4 )
L:1/8
Q:1/4=110
M:3/4
K:F
V:1 treble 
V:2 treble 
V:3 bass 
V:4 bass 
V:1
 [DA]2 | (d2 c2) B2 | [FA]4 D2 | ([DG]2 [CF]2) [CE]2 | [CF]4 F2 | c3 (z B) [FA]2 | G2 A2 [FB]2 | %7
 [EA]4 [DF]2 | D4 [DG]2 | ([DF]2 [^CE]2) [EA]2 | [DF]4 [GB]2 | ([FA]2 [EG]2) [Ed]2 | [E^c]4 d2 | %13
 ([EG]2 [DF]2) [^CE]2 | D4 |] %15
V:2
 x2 | F4 (DE) | x4 D2 | x6 | x4 F2 | F2 G2 x3 | F4 x2 | x6 | D4 x2 | x6 | x6 | x6 | x4 (AF) | x6 | %14
 D4 |] %15
V:3
 [D,F,]2 | A,4 (B,C) | [D,D]4 F,2 | ([B,,B,]2 [C,A,]2) [C,G,]2 | [F,A,]4 [D,D]2 | C4 [F,C]2 x | %6
 D4 [G,D]2 | [A,^C]4 [D,A,]2 | ([F,A,]2 [D,F,]2) [B,,G,]2 | [A,,A,]4 [^C,A,]2 | %10
 [D,A,]2 [B,,B,]2 [G,,D]2 | [C,C]4 [B,,G,]2 | A,4 [F,A,]2 | ([G,B,]2 A,2) (A,G,) | [D,F,]4 |] %15
V:4
 x2 | (D,2 F,2) G,2 | x4 (D,C,) | x6 | x6 | (A,2 E,2) x3 | (B,2 A,2) x2 | x6 | x6 | x6 | x6 | x6 | %12
 (A,,2 A,2) x2 | x2 A,2 A,,2 | x4 |] %15

